T: Bean An Ti Ar Lar
M: 4/4
L: 1/8
K: Dmaj
|: AGFE D2 FD | GEFE DBAB | AGFE D2 FD |[1 E2 cA BGEB :|[2 E2 cA BGEd |||: cdec A2 cA | cdec AF E2 |
